icons/running.svg

<svg width="48" height="48" viewBox="0 0 48 48" fill="none" xmlns="http://www.w3.org/2000/svg">
<path d="M27.6807 22.2118C27.8415 22.363 28.0053 22.5055 28.1722 22.6393C29.4624 23.6741 30.8406 24.1185 32.1535 24.1888C34.3638 24.3072 36.33 23.3208 37.1292 22.9199C37.2195 22.8746 37.2949 22.8368 37.3541 22.8089C38.3531 22.3376 38.7809 21.1457 38.3097 20.1467C37.8384 19.1477 36.6465 18.7199 35.6475 19.1912C35.538 19.2429 35.4268 19.2965 35.314 19.351C34.4298 19.7778 33.4466 20.2524 32.3675 20.1945C31.8419 20.1664 31.2757 20.0008 30.6749 19.519C30.0497 19.0175 29.303 18.1038 28.5808 16.4473C27.9955 15.1048 27.1243 14.0645 25.8863 13.4742C24.6997 12.9085 23.4375 12.8842 22.3127 13.0177C19.298 13.3756 17.0073 15.1237 15.4492 16.7471C14.1664 18.0838 13.2092 19.5339 12.7399 20.245C12.6444 20.3897 12.569 20.5038 12.5153 20.5801C11.8793 21.4832 12.0958 22.7309 12.9988 23.3669C13.9019 24.0029 15.1496 23.7865 15.7856 22.8834C15.8974 22.7247 16.0204 22.5396 16.1574 22.3337C16.6574 21.5815 17.3423 20.5514 18.3351 19.5169C19.1172 18.7019 19.9928 17.9972 20.9571 17.534C20.734 18.1484 20.4808 18.8467 20.2244 19.5559C19.4848 21.6019 18.6606 23.8968 18.5277 24.3561C18.4064 24.7755 18.4437 25.1342 18.4718 25.3131C18.5035 25.5151 18.5569 25.6859 18.5997 25.8056C18.6852 26.0445 18.7983 26.27 18.8978 26.4525C19.1021 26.8276 19.3818 27.2607 19.6828 27.7002C20.293 28.5911 21.1147 29.6865 21.9297 30.7456C22.6495 31.6811 23.3825 32.612 23.9856 33.3778L24.2272 33.6847C24.5509 34.0961 24.8217 34.4411 25.0209 34.6999C25.1107 34.8165 25.1718 34.8977 25.2111 34.9504C25.2498 35.0833 25.2991 35.276 25.3579 35.529C25.4747 36.0318 25.6094 36.6864 25.7514 37.4051C25.8427 37.8673 25.9377 38.3599 26.0315 38.8469C26.221 39.8295 26.4061 40.7901 26.548 41.4317C26.7864 42.5103 27.854 43.1913 28.9325 42.9529C30.011 42.7144 30.6921 41.6468 30.4537 40.5683C30.3233 39.9784 30.1574 39.1177 29.9759 38.1757C29.8793 37.674 29.7781 37.1491 29.6756 36.6299C29.5322 35.904 29.3868 35.1948 29.254 34.6235C29.188 34.3393 29.12 34.0671 29.0521 33.8338C29.0029 33.6646 28.8996 33.3146 28.7255 33.0104C28.6013 32.7935 28.3618 32.4823 28.1995 32.2715L28.1904 32.2598C27.9761 31.9814 27.6924 31.6199 27.3706 31.211L27.1274 30.9021L27.1268 30.9013C26.5228 30.1343 25.8047 29.2224 25.0998 28.3063C25.0223 28.2056 24.9452 28.1051 24.8686 28.005L27.6807 22.2118Z" stroke="black" stroke-width="2" stroke-linecap="round" stroke-linejoin="round"/>
<path d="M20.6068 34.3308L17.7521 30.3627L16.9314 32.7219L11.958 31.5531C10.8827 31.3003 9.80621 31.9672 9.5535 33.0424C9.30079 34.1177 9.96761 35.1943 11.0429 35.447L17.7706 37.0281C18.7677 37.2624 19.7806 36.7057 20.1172 35.7383L20.6068 34.3308Z" stroke="black" stroke-width="2" stroke-linecap="round" stroke-linejoin="round"/>
<path fill-rule="evenodd" clip-rule="evenodd" d="M32.001 12C33.6578 12 35.001 10.6569 35.001 9C35.001 7.34315 33.6578 6 32.001 6C30.3441 6 29.001 7.34315 29.001 9C29.001 10.6569 30.3441 12 32.001 12ZM32.001 14C34.7624 14 37.001 11.7614 37.001 9C37.001 6.23858 34.7624 4 32.001 4C29.2396 4 27.001 6.23858 27.001 9C27.001 11.7614 29.2396 14 32.001 14Z" fill="black"/>
</svg>

<svg
  xmlns="http://www.w3.org/2000/svg"
  width="24"
  height="24"
  viewBox="0 0 24 24"
  fill="none"
  stroke="currentColor"
  stroke-width="2"
  stroke-linecap="round"
  stroke-linejoin="round"
>
  <path d="M27.68 22.212q.242.227.492.427c1.29 1.035 2.669 1.48 3.982 1.55 2.21.118 4.176-.868 4.975-1.27l.225-.11a2 2 0 0 0-1.706-3.618l-.334.16c-.884.427-1.867.901-2.947.844-.525-.029-1.091-.194-1.692-.676-.625-.502-1.372-1.415-2.094-3.072-.585-1.342-1.457-2.382-2.695-2.973-1.186-.566-2.448-.59-3.573-.456-3.015.358-5.306 2.106-6.864 3.73-1.283 1.336-2.24 2.786-2.71 3.497q-.143.22-.224.335a2 2 0 0 0 3.27 2.303q.167-.238.372-.55c.5-.751 1.185-1.782 2.178-2.816.782-.815 1.658-1.52 2.622-1.983l-.733 2.022c-.74 2.046-1.563 4.34-1.696 4.8-.122.42-.084.778-.056.957.031.202.085.373.128.493.085.238.198.464.298.646.204.376.484.809.785 1.248.61.891 1.432 1.986 2.247 3.046.72.935 1.453 1.866 2.056 2.632l.241.307c.324.411.595.756.794 1.015.09.116.15.198.19.25q.059.2.147.579c.117.503.251 1.157.393 1.876.092.462.187.955.28 1.442.19.983.375 1.943.517 2.585a2 2 0 1 0 3.906-.864c-.13-.59-.297-1.45-.478-2.392-.097-.502-.198-1.027-.3-1.546a65 65 0 0 0-.422-2.007 15 15 0 0 0-.202-.79c-.05-.168-.152-.518-.326-.823-.125-.216-.364-.528-.526-.738l-.01-.012c-.214-.279-.498-.64-.82-1.049l-.243-.309h0a294 294 0 0 1-2.258-2.897z" />
  <path d="m20.607 34.33-2.855-3.967-.82 2.359-4.974-1.169a2 2 0 1 0-.915 3.894l6.728 1.581a2 2 0 0 0 2.346-1.29z" />
  <path
    fill-rule="evenodd"
    d="M32.001 12a3 3 0 1 0 0-6 3 3 0 0 0 0 6m0 2a5 5 0 1 0 0-10 5 5 0 0 0 0 10"
    clip-rule="evenodd"
  />
</svg>
